icons/1_Primary/Lnk.Bio.svg

<svg xmlns="http://www.w3.org/2000/svg" width="1024" height="1024" fill="none">
   <g clip-path="url(#a)">
      <path fill="#BD9AFF" d="M512 1024c282.77 0 512-229.23 512-512S794.77 0 512 0 0 229.23 0 512s229.23 512 512 512Z"/>
      <path fill="#fff" d="M579.3 444.7a144.796 144.796 0 0 1 .34 204.53l-.34.35-64 64c-56.49 56.49-148.4 56.48-204.88 0-56.48-56.48-56.49-148.4 0-204.88l35.37-35.37c9.38-9.38 25.53-3.15 26 10.11a175.659 175.659 0 0 0 9.21 50.3 15.336 15.336 0 0 1-3.61 15.83L364.91 562c-26.71 26.71-27.55 70.21-1.1 97.18a68.703 68.703 0 0 0 75.102 15.407 68.684 68.684 0 0 0 22.428-14.917l64-64a68.597 68.597 0 0 0 20.111-48.53 68.603 68.603 0 0 0-20.111-48.53 71.409 71.409 0 0 0-9.86-8.17 15.277 15.277 0 0 1-4.729-5.217 15.284 15.284 0 0 1-1.891-6.783 38.017 38.017 0 0 1 11.2-28.44l20.06-20a15.315 15.315 0 0 1 19.62-1.65 145.33 145.33 0 0 1 19.56 16.35Zm134.33-134.33c-56.48-56.48-148.39-56.49-204.88 0l-64 64-.34.35a144.896 144.896 0 0 0-41.491 115.094A144.902 144.902 0 0 0 464.31 595.64a15.312 15.312 0 0 0 19.57-1.64l20.06-20a37.99 37.99 0 0 0 11.15-28.41 15.283 15.283 0 0 0-6.62-12 71.456 71.456 0 0 1-9.86-8.17 68.629 68.629 0 0 1-14.884-22.264 68.621 68.621 0 0 1 0-52.532 68.629 68.629 0 0 1 14.884-22.264l64-64a68.705 68.705 0 0 1 75.253-14.651 68.674 68.674 0 0 1 22.277 15.141c26.45 27 25.61 70.47-1.1 97.18l-12.47 12.47a15.35 15.35 0 0 0-3.57 15.76 175.621 175.621 0 0 1 9.24 50.25c.49 13.25 16.64 19.49 26 10.11l35.37-35.37c56.49-56.48 56.49-148.4 0-204.88h.02Z"/>
   </g>
   <defs>
      <clipPath id="a">
         <path fill="#fff" d="M0 0h1024v1024H0z"/>
      </clipPath>
   </defs>
</svg>

<svg width="1024" height="1024" viewBox="0 0 1024 1024" fill="none" xmlns="http://www.w3.org/2000/svg">
<g clip-path="url(#clip0_2_2691)">
<path d="M512 1024C794.77 1024 1024 794.77 1024 512C1024 229.23 794.77 0 512 0C229.23 0 0 229.23 0 512C0 794.77 229.23 1024 512 1024Z" fill="#BD9AFF"/>
<path d="M579.3 444.7C606.425 471.8 621.694 508.552 621.757 546.895C621.821 585.237 606.675 622.04 579.64 649.23L579.3 649.58L515.3 713.58C458.81 770.07 366.9 770.06 310.42 713.58C253.94 657.1 253.93 565.18 310.42 508.7L345.79 473.33C355.17 463.95 371.32 470.18 371.79 483.44C372.39 500.566 375.493 517.513 381 533.74C381.94 536.452 382.1 539.373 381.461 542.172C380.823 544.97 379.413 547.533 377.39 549.57L364.91 562C338.2 588.71 337.36 632.21 363.81 659.18C370.164 665.648 377.735 670.794 386.087 674.322C394.439 677.849 403.407 679.689 412.473 679.735C421.54 679.78 430.525 678.031 438.912 674.587C447.3 671.143 454.922 666.074 461.34 659.67L525.34 595.67C531.716 589.298 536.774 581.733 540.224 573.406C543.675 565.079 545.451 556.154 545.451 547.14C545.451 538.126 543.675 529.201 540.224 520.874C536.774 512.547 531.716 504.982 525.34 498.61C522.305 495.597 519.005 492.863 515.48 490.44C513.519 489.093 511.9 487.307 510.751 485.223C509.601 483.14 508.954 480.817 508.86 478.44C508.657 473.183 509.547 467.94 511.475 463.044C513.403 458.149 516.326 453.707 520.06 450L540.12 430C542.674 427.462 546.042 425.905 549.63 425.603C553.218 425.301 556.798 426.274 559.74 428.35C566.727 433.217 573.272 438.688 579.3 444.7ZM713.63 310.37C657.15 253.89 565.24 253.88 508.75 310.37L444.75 374.37L444.41 374.72C429.519 389.718 418.089 407.791 410.922 427.673C403.754 447.555 401.023 468.765 402.919 489.814C404.815 510.863 411.293 531.243 421.898 549.524C432.503 567.805 446.979 583.545 464.31 595.64C467.247 597.704 470.816 598.671 474.393 598.371C477.97 598.071 481.328 596.524 483.88 594L503.94 574C507.662 570.292 510.574 565.854 512.493 560.964C514.412 556.074 515.296 550.839 515.09 545.59C514.997 543.213 514.349 540.89 513.2 538.807C512.051 536.724 510.431 534.937 508.47 533.59C504.946 531.168 501.646 528.433 498.61 525.42C492.235 519.048 487.177 511.483 483.726 503.156C480.276 494.829 478.5 485.904 478.5 476.89C478.5 467.876 480.276 458.951 483.726 450.624C487.177 442.297 492.235 434.732 498.61 428.36L562.61 364.36C569.029 357.957 576.651 352.887 585.038 349.443C593.425 345.999 602.411 344.25 611.477 344.295C620.544 344.341 629.511 346.181 637.863 349.709C646.215 353.236 653.787 358.382 660.14 364.85C686.59 391.85 685.75 435.32 659.04 462.03L646.57 474.5C644.568 476.535 643.173 479.088 642.542 481.872C641.911 484.656 642.07 487.561 643 490.26C648.513 506.47 651.626 523.399 652.24 540.51C652.73 553.76 668.88 560 678.24 550.62L713.61 515.25C770.1 458.77 770.1 366.85 713.61 310.37H713.63Z" fill="white"/>
</g>
<defs>
<clipPath id="clip0_2_2691">
<rect width="1024" height="1024" fill="white"/>
</clipPath>
</defs>
</svg>
